X: 1
T: Glencoe Hall
C: Dan R. MacDonald
R: jig
Z: 2012 John Chambers <jc:trillian.mit.edu>
M: 6/8
L: 1/8
K: D
A, |\
"D"DED F2G | A3 A2B | Adf "(Bm)"afd | "A7"e3 e2f |
"G"gfg bag | "D"fef afd | "Em"gfg "A7"cac | "D"d3 d2 :|
|: f |\
"D"afd Adf | abg afd | "D"afd "Bm"Adf | "Em"ecA "A7"GFE |
[1 "D"afd Adf | abg afd | "Em"gfg "A7"cac | "D"d3 d2 :|
[2 "D"DFA "G"DGB | "D"FAd afd | "Em"gfg "A7"cac | "D"d3 d2 |]
